X:1
T:The Virginia
M:4/4
L:1/8
O:Trad. (28.3.2016/NS)
K:Dmaj
|: "G"  DBBA     B3A  |     BAdB "A" AFEF | "D" DFF2 A3B  |     AFBF AFEF  |
   "G"  DBBA     B3A  |     BAdB "A" ABde | "D" f2fe dffe |     dBAF BEE2 :|
|: "D"  defe     d2dA |     BAFA     dAFA |     defe defg |     afbf afeg  |
   "Bm" f2df "A" efdB | "D" AFF2     ABde | "G" f2fe dffe | "A" dBAF BEE2 :|
